svgs/light/snowman-head.svg

<svg xmlns="http://www.w3.org/2000/svg" viewBox="0 0 448 512"><!-- Font Awesome Pro 6.0.0-alpha2 by @fontawesome - https://fontawesome.com License - https://fontawesome.com/license (Commercial License) --><path d="M432 192H353.812H91.109H16C7.156 192 0 199.156 0 208S7.156 224 16 224H61.398C35.463 258.445 20.922 300.521 20.922 344C20.922 406.406 49.312 464.125 98.812 502.344C106.859 508.562 117.234 512 128 512H316.922C327.688 512 338.062 508.562 346.109 502.344C395.609 464.125 424 406.406 424 344C424 300.521 409.459 258.445 383.523 224H432C440.844 224 448 216.844 448 208S440.844 192 432 192ZM392 344C392 396.406 368.141 444.906 326.547 477.031C324.062 478.938 320.641 480 316.922 480H128C124.281 480 120.859 478.938 118.375 477.031C76.781 444.906 52.922 396.438 52.922 344C52.922 298.969 71.344 255.594 103.641 224H341.281C373.578 255.594 392 298.969 392 344ZM80 160C88.844 160 96 152.844 96 144V48C96 39.188 103.172 32 112 32H336C344.828 32 352 39.188 352 48V144C352 152.844 359.156 160 368 160S384 152.844 384 144V48C384 21.531 362.469 0 336 0H112C85.531 0 64 21.531 64 48V144C64 152.844 71.156 160 80 160ZM144 280C130.746 280 120 290.746 120 304S130.746 328 144 328C157.256 328 168 317.254 168 304S157.256 280 144 280ZM304 280C290.746 280 280 290.746 280 304S290.746 328 304 328C317.256 328 328 317.254 328 304S317.256 280 304 280ZM224 320C194.594 320 170.672 343.938 170.672 373.344C170.672 397.188 201.422 443.469 210.844 457.094C213.828 461.406 218.75 464 224 464S234.172 461.406 237.156 457.094C246.578 443.469 277.328 397.188 277.328 373.344C277.328 343.938 253.406 320 224 320ZM224 418.594C212.297 399.375 202.672 380.219 202.672 373.344C202.672 361.375 212.047 352 224 352S245.328 361.375 245.328 373.344C245.328 380.219 235.703 399.375 224 418.594Z"/></svg>

<svg xmlns="http://www.w3.org/2000/svg" viewBox="0 0 448 512"><!--! Font Awesome Pro 6.3.0 by @fontawesome - https://fontawesome.com License - https://fontawesome.com/license (Commercial License) Copyright 2023 Fonticons, Inc. --><path d="M432 192h-416c-8.844 0-16 7.156-16 16S7.156 224 16 224h45.4c-25.94 34.45-40.48 76.52-40.48 120c0 62.41 28.39 120.1 77.89 158.3C106.9 508.6 117.2 512 128 512h188.9c10.77 0 21.14-3.438 29.19-9.656C395.6 464.1 424 406.4 424 344c0-43.48-14.54-85.55-40.48-120H432c8.844 0 16-7.156 16-16S440.8 192 432 192zM392 344c0 52.41-23.86 100.9-65.45 133C324.1 478.9 320.6 480 316.9 480H128c-3.719 0-7.141-1.062-9.625-2.969C76.78 444.9 52.92 396.4 52.92 344c0-45.03 18.42-88.41 50.72-120h237.6C373.6 255.6 392 298.1 392 344zM80 160C88.84 160 96 152.8 96 144v-96C96 39.19 103.2 32 112 32h224C344.8 32 352 39.19 352 48v96C352 152.8 359.2 160 368 160S384 152.8 384 144v-96C384 21.53 362.5 0 336 0h-224C85.53 0 64 21.53 64 48v96C64 152.8 71.16 160 80 160zM144 280c-13.25 0-24 10.75-24 24s10.75 24 24 24c13.26 0 24-10.75 24-24S157.3 280 144 280zM304 280c-13.25 0-24 10.75-24 24s10.75 24 24 24c13.26 0 24-10.75 24-24S317.3 280 304 280zM224 320c-29.41 0-53.33 23.94-53.33 53.34c0 23.84 30.75 70.13 40.17 83.76C213.8 461.4 218.8 464 224 464s10.17-2.588 13.16-6.9c9.422-13.62 40.17-59.91 40.17-83.76C277.3 343.9 253.4 320 224 320zM224 418.6c-11.7-19.22-21.33-38.38-21.33-45.25C202.7 361.4 212 352 224 352s21.33 9.375 21.33 21.34C245.3 380.2 235.7 399.4 224 418.6z"/></svg>
